X: 1
T: Ninety-Eight March
M: 4/4
L: 1/8
R: reel
K: Emin
gf|e3/2f/2 ed eB  (3B/2c/2B/2 A|B3/2e/2 ed e2ed|
B3/2c/2 BA GE  (3E/2F/2E/2 D|E6ef|
g3/2a/2 ge d2ef| (3g/2a/2g/2 e dB e2ed|
B3/2c/2 BA GE  (3E/2F/2E/2 D|E6GA|
B3/2d/2 ef g2 (3f/2g/2f/2 e|d3/2{e}d/2 dB A2GA|
Be ef ed dB|e6ef|g3/2a/2 ge d2ef|
 (3g/2a/2g/2 e dB e2ed|B3/2c/2 BA G2E2|E6:|
